X:1
T:Merch Megan
M:3/4
L:1/8
R:Air
K:G
dc|B2G2G2|e4d2|c2B2AG|F2D2dc|
B2G2G2|e4d2|c2B2A2|G4:|
d2|g2 gaga|f2 fgfg|e2 efge|f2d2 ef|
g2 gabg|f2 fgaf|eba gfe|d4 dc|
B2G2G2|e4d2|c2B2AG|F2D2 dc|
B2G2G2|e4d2|c2B2A2|G4||

